src/components/Icon/utils/svgsOptimized/clipboard.svg

<svg width="24" height="24" viewBox="0 0 24 24"  xmlns="http://www.w3.org/2000/svg">
<path d="M16.91 5.08782H14.44C13.23 3.74782 11.17 3.62782 9.82 4.82782C9.73 4.90782 9.64 4.99782 9.56 5.08782H7.09C6.49 5.08782 6 5.57782 6 6.17782V17.6278C6 18.2278 6.49 18.7178 7.09 18.7178H16.91C17.51 18.7178 18 18.2278 18 17.6278V6.17782C18 5.57782 17.51 5.08782 16.91 5.08782ZM12 5.08782C13.2 5.08782 14.18 6.06782 14.18 7.26782H9.82C9.82 6.06782 10.8 5.08782 12 5.08782ZM14.18 13.8178H9.82C9.52 13.8178 9.27 13.5778 9.27 13.2678C9.27 12.9578 9.51 12.7178 9.82 12.7178H14.18C14.48 12.7178 14.73 12.9578 14.73 13.2678C14.73 13.5778 14.49 13.8178 14.18 13.8178ZM14.18 11.6378H9.82C9.52 11.6378 9.27 11.3978 9.27 11.0878C9.27 10.7778 9.51 10.5378 9.82 10.5378H14.18C14.48 10.5378 14.73 10.7778 14.73 11.0878C14.73 11.3978 14.49 11.6378 14.18 11.6378Z" />
</svg>

<?xml version="1.0" encoding="utf-8"?><svg width="24" height="24" xmlns="http://www.w3.org/2000/svg" viewBox="0 0 24 24"><path d="M16.91 5.088h-2.47a3.283 3.283 0 0 0-4.88 0H7.09c-.6 0-1.09.49-1.09 1.09v11.45c0 .6.49 1.09 1.09 1.09h9.82c.6 0 1.09-.49 1.09-1.09V6.178c0-.6-.49-1.09-1.09-1.09Zm-4.91 0c1.2 0 2.18.98 2.18 2.18H9.82c0-1.2.98-2.18 2.18-2.18Zm2.18 8.73H9.82c-.3 0-.55-.24-.55-.55 0-.31.24-.55.55-.55h4.36c.3 0 .55.24.55.55 0 .31-.24.55-.55.55Zm0-2.18H9.82c-.3 0-.55-.24-.55-.55 0-.31.24-.55.55-.55h4.36c.3 0 .55.24.55.55 0 .31-.24.55-.55.55Z"/></svg>
